build/img-landing/svg/cap8.svg

<svg width="69" height="69" viewBox="0 0 69 69" fill="none" xmlns="http://www.w3.org/2000/svg">
<path d="M64.5322 48.9627V12.2424C64.5322 10.3955 63.0384 8.90169 61.1915 8.90169H7.79492C5.94804 8.90169 4.45424 10.3955 4.45424 12.2424V48.9627H0V53.2811C0 55.1008 0.70616 56.8119 1.99626 58.102C3.28636 59.3921 4.99744 60.0983 6.81716 60.0983H62.1828C64.0026 60.0983 65.7136 59.3921 67.0037 58.102C68.2938 56.8119 69 55.1008 69 53.2811V48.9627H64.5322ZM6.68136 12.2424C6.68136 11.6313 7.18382 11.1288 7.79492 11.1288H61.2051C61.8162 11.1288 62.3186 11.6313 62.3186 12.2424V48.9627H41.1746V51.1898H27.8254V48.9627H6.68136V12.2424ZM66.7729 53.2811H66.7593C66.7593 54.5033 66.284 55.6576 65.4149 56.5268C64.5458 57.3959 63.3915 57.8712 62.1693 57.8712H6.81716C5.59496 57.8712 4.44066 57.3959 3.57154 56.5268C2.70242 55.6576 2.22712 54.5033 2.22712 53.2811V51.1898H25.5983V53.4169H43.4017V51.1898H66.7729V53.2811Z" fill="#E30613"/>
<path d="M8.8949 13.3559V24.4372V46.7356H60.0779V24.4372H60.0915V13.3559H8.8949ZM11.122 15.5966H57.8508V22.2237H11.122V15.5966ZM11.122 44.5085V24.4372H57.8508V44.5085H11.122Z" fill="#E30613"/>
<path d="M62.3187 53.4169H60.0916V55.6441H62.3187V53.4169Z" fill="#E30613"/>
<path d="M57.8645 53.4169H55.6373V55.6441H57.8645V53.4169Z" fill="#E30613"/>
<path d="M53.4101 53.4169H51.183V55.6441H53.4101V53.4169Z" fill="#E30613"/>
<path d="M22.2577 53.4169H6.6814V55.6441H22.2577V53.4169Z" fill="#E30613"/>
<path d="M16.6898 17.8102H14.4626V20.0373H16.6898V17.8102Z" fill="#E30613"/>
<path d="M21.144 17.8102H18.9169V20.0373H21.144V17.8102Z" fill="#E30613"/>
<path d="M25.5983 17.8102H23.3712V20.0373H25.5983V17.8102Z" fill="#E30613"/>
<path d="M54.5237 17.8102H34.4932V20.0373H54.5237V17.8102Z" fill="#E30613"/>
<path d="M22.7194 34.5L27.3909 29.8285L25.8156 28.2532L19.5688 34.5L25.87 40.8011L27.4452 39.2258L22.7194 34.5Z" fill="#E30613"/>
<path d="M44.1757 28.2532L42.614 29.8285L47.3399 34.5543L42.6548 39.2258L44.23 40.8011L50.4768 34.5543L44.1757 28.2532Z" fill="#E30613"/>
<path d="M39.1472 27.1892L29.1271 41.6605L30.9583 42.9285L40.9784 28.4572L39.1472 27.1892Z" fill="#E30613"/>
</svg>

<svg width="69" height="69" viewBox="0 0 69 69" fill="none" xmlns="http://www.w3.org/2000/svg"><path d="M64.532 48.963v-36.72a3.338 3.338 0 0 0-3.34-3.341H7.794a3.338 3.338 0 0 0-3.34 3.34v36.72H0v4.32c0 1.819.706 3.53 1.996 4.82a6.77 6.77 0 0 0 4.821 1.996h55.366c1.82 0 3.53-.706 4.82-1.996A6.77 6.77 0 0 0 69 53.282v-4.32h-4.468zm-57.85-36.72c0-.612.502-1.114 1.113-1.114h53.41c.611 0 1.114.502 1.114 1.113v36.72H41.175v2.228h-13.35v-2.227H6.681v-36.72zm60.09 41.038h-.013a4.562 4.562 0 0 1-1.344 3.246 4.561 4.561 0 0 1-3.246 1.344H6.817a4.561 4.561 0 0 1-3.245-1.344 4.562 4.562 0 0 1-1.345-3.246V51.19h23.371v2.227h17.804V51.19h23.37v2.091z" fill="#E30613"/><path d="M8.895 13.356v33.38h51.183V24.437h.014V13.356H8.895zm2.227 2.24h46.729v6.628H11.122v-6.627zm0 28.912v-20.07h46.729v20.07H11.122zm51.197 8.909h-2.227v2.227h2.227v-2.227zm-4.455 0h-2.227v2.227h2.227v-2.227zm-4.454 0h-2.227v2.227h2.227v-2.227zm-31.152 0H6.68v2.227h15.577v-2.227z" fill="#E30613"/><path d="M16.69 17.81h-2.227v2.227h2.227V17.81zm4.454 0h-2.227v2.227h2.227V17.81zm4.454 0h-2.227v2.227h2.227V17.81zm28.926 0h-20.03v2.227h20.03V17.81zM22.72 34.5l4.67-4.672-1.574-1.575-6.247 6.247 6.301 6.301 1.575-1.575L22.72 34.5zm21.456-6.247l-1.562 1.575 4.726 4.726-4.685 4.672L44.23 40.8l6.247-6.247-6.301-6.3zm-5.029-1.063l-10.02 14.47 1.831 1.269 10.02-14.472-1.83-1.268z" fill="#E30613"/></svg>
